resources/icons/wallets/arkvault.svg

<svg viewBox="0 0 44 45" fill="none" xmlns="http://www.w3.org/2000/svg">
<g clip-path="url(#clip0_2345_54020)">
<path d="M21.0562 43.2835C19.9701 42.5136 18.93 41.6801 17.9413 40.7874C16.9059 39.8728 15.8742 38.8839 14.8748 37.8487C13.6349 36.5641 12.4395 35.2018 11.3215 33.7993C8.52899 30.3098 6.17437 26.4878 4.3107 22.4197C3.23366 20.0569 2.33789 17.6147 1.63124 15.1145C0.860879 12.3768 0.322433 9.57843 0.021687 6.74936C-0.0405165 6.16557 -0.0150838 5.44528 0.738823 5.06693C2.88165 4.09718 5.09247 3.28714 7.35341 2.64337C9.4558 2.02415 11.5924 1.5292 13.7524 1.16109C16.2442 0.731555 18.7672 0.510427 21.2953 0.5H22.7052C25.2334 0.510427 27.7563 0.731555 30.2482 1.16109C32.4081 1.5292 34.5447 2.02415 36.6471 2.64337C38.9081 3.28725 41.119 4.09729 43.262 5.06693C44.0159 5.44556 44.041 6.16501 43.9788 6.74936C43.6781 9.57843 43.1396 12.3768 42.3693 15.1145C41.6626 17.6147 40.7669 20.0568 39.6899 22.4197C37.8262 26.4878 35.4716 30.3098 32.6791 33.7993C31.5614 35.2016 30.366 36.5638 29.1258 37.8487C28.1264 38.8839 27.0946 39.8728 26.0593 40.7874C25.0704 41.68 24.0304 42.5134 22.9444 43.2835C22.65 43.4261 22.3275 43.5001 22.0007 43.5001C21.6739 43.5001 21.3514 43.4261 21.057 43.2835H21.0562ZM21.8789 15.3172C21.8289 15.3836 18.4315 18.9114 15.9508 21.4873C15.0957 22.3769 14.3429 23.1569 13.8618 23.6573C12.8922 24.6117 12.2759 25.8705 12.1152 27.2253C12.0493 27.9452 12.1335 28.6709 12.3623 29.3562C12.6451 30.1783 13.0739 30.9421 13.6277 31.6105C15.2068 33.5738 16.9474 35.4 18.8312 37.0697C19.6066 37.7665 20.4212 38.418 21.271 39.0207C21.4975 39.1346 21.7473 39.1939 22.0005 39.1939C22.2538 39.1939 22.5036 39.1346 22.7301 39.0207C23.5798 38.4179 24.3943 37.7665 25.1696 37.0697C27.0534 35.4001 28.7941 33.5739 30.3731 31.6105C30.927 30.9421 31.3557 30.1783 31.6385 29.3562C31.8674 28.6709 31.9516 27.9452 31.8857 27.2253C31.7248 25.8703 31.1082 24.6113 30.1382 23.657L28.3379 21.7869L28.1217 21.5623C25.6106 18.955 22.1714 15.3839 22.1208 15.3169C22.1078 15.2964 22.09 15.2796 22.0688 15.2679C22.0477 15.2563 22.024 15.2502 21.9999 15.2502C21.9758 15.2502 21.952 15.2563 21.9309 15.2679C21.9097 15.2796 21.8919 15.2964 21.8789 15.3169V15.3172ZM22.05 6.87166C22.0666 6.89779 22.089 6.9331 22.1208 6.9773C22.1684 7.04346 22.8814 8.18435 23.8689 9.76309C26.2376 13.5508 30.2017 19.8899 31.2443 21.4333C32.015 22.5731 32.9887 23.2286 33.9151 23.2289C34.8147 23.2289 36.1161 22.6173 37.2064 19.6958C38.3914 16.5219 39.1724 13.21 39.5309 9.83897C39.5806 9.37221 39.5605 8.7976 38.958 8.49514C37.2464 7.72074 35.4805 7.07377 33.6746 6.55946C31.9953 6.06476 30.2887 5.66936 28.5634 5.37523C26.5731 5.03213 24.5579 4.85545 22.5385 4.84703H21.4603C19.441 4.85545 17.4258 5.03213 15.4355 5.37523C13.7102 5.66936 12.0035 6.06476 10.3242 6.55946C8.51837 7.07382 6.7525 7.72079 5.04083 8.49514C4.43897 8.79732 4.41851 9.37193 4.468 9.83897C4.82644 13.21 5.60748 16.5219 6.7925 19.6958C7.39435 21.3082 8.45399 23.2289 10.0837 23.2289C11.0104 23.2289 11.9836 22.5745 12.7546 21.4333C13.7963 19.8913 17.7585 13.5558 20.1256 9.77031L20.1295 9.76394C21.117 8.18464 21.8305 7.04373 21.8778 6.97784C21.9093 6.93364 21.9331 6.89806 21.9483 6.8722C21.9737 6.83245 21.9862 6.81244 21.9989 6.81244C22.0116 6.81244 22.0249 6.83191 22.05 6.87166ZM15.3097 25.047L17.6983 22.5414H26.1043L28.4927 25.047H15.3097ZM19.4662 20.7469L21.9168 18.2102L24.367 20.7469H19.4662Z" fill="#235B95"/>
</g>
<defs>
<clipPath id="clip0_2345_54020">
<rect width="44" height="44" fill="white" transform="translate(0 0.5)"/>
</clipPath>
</defs>
</svg>

<svg viewBox="0 0 44 45" fill="none" xmlns="http://www.w3.org/2000/svg"><g clip-path="url(#a)"><path d="M21.056 43.283a33.915 33.915 0 0 1-3.115-2.496 53.713 53.713 0 0 1-3.066-2.938 57.146 57.146 0 0 1-3.553-4.05A54.622 54.622 0 0 1 4.31 22.42a51.16 51.16 0 0 1-2.68-7.305A50.65 50.65 0 0 1 .021 6.75C-.04 6.166-.014 5.445.74 5.067a47.776 47.776 0 0 1 6.614-2.424 55.87 55.87 0 0 1 6.4-1.482c2.491-.43 5.014-.65 7.542-.661h1.41c2.528.01 5.051.232 7.543.661 2.16.368 4.297.863 6.4 1.482a47.814 47.814 0 0 1 6.614 2.424c.754.379.779 1.098.717 1.682a50.65 50.65 0 0 1-1.61 8.366 51.176 51.176 0 0 1-2.68 7.305 54.624 54.624 0 0 1-7.01 11.38 57.105 57.105 0 0 1-3.553 4.049 53.747 53.747 0 0 1-3.067 2.938 34.006 34.006 0 0 1-3.115 2.496 2.164 2.164 0 0 1-1.887 0Zm.823-27.966c-.05.067-3.448 3.594-5.928 6.17-.855.89-1.608 1.67-2.09 2.17a5.998 5.998 0 0 0-1.746 3.568c-.066.72.018 1.446.247 2.131a7.209 7.209 0 0 0 1.266 2.254 44.888 44.888 0 0 0 5.203 5.46 27.14 27.14 0 0 0 2.44 1.95 1.624 1.624 0 0 0 1.46 0 27.154 27.154 0 0 0 2.439-1.95 44.866 44.866 0 0 0 5.203-5.46 7.207 7.207 0 0 0 1.265-2.254 5.224 5.224 0 0 0 .248-2.13 5.998 5.998 0 0 0-1.748-3.569l-1.8-1.87-.216-.225c-2.511-2.607-5.95-6.178-6.001-6.245a.144.144 0 0 0-.19-.05.144.144 0 0 0-.052.05Zm.171-8.445c.017.026.039.061.07.105.048.066.761 1.207 1.749 2.786 2.369 3.788 6.333 10.127 7.375 11.67.771 1.14 1.745 1.796 2.671 1.796.9 0 2.201-.612 3.291-3.533a40.394 40.394 0 0 0 2.325-9.857c.05-.467.03-1.041-.573-1.344a38.2 38.2 0 0 0-5.283-1.936 44.629 44.629 0 0 0-5.112-1.184 36.357 36.357 0 0 0-6.024-.528H21.46c-2.019.008-4.034.185-6.025.528a44.63 44.63 0 0 0-5.11 1.184A38.219 38.219 0 0 0 5.04 8.495c-.602.302-.622.877-.573 1.344a40.39 40.39 0 0 0 2.325 9.857c.601 1.612 1.661 3.533 3.29 3.533.927 0 1.9-.654 2.672-1.796 1.041-1.542 5.004-7.877 7.37-11.663l.005-.006c.987-1.58 1.7-2.72 1.748-2.786a1.56 1.56 0 0 0 .07-.106c.026-.04.038-.06.05-.06.014 0 .027.02.052.06Zm-6.74 18.175 2.388-2.506h8.406l2.389 2.506H15.31Zm4.156-4.3 2.45-2.537 2.451 2.537h-4.9Z" fill="#235B95"/></g><defs><clipPath id="a"><path fill="#fff" transform="translate(0 .5)" d="M0 0h44v44H0z"/></clipPath></defs></svg>
